icons/modern/salt.svg

<svg width="32" height="32" viewBox="0 0 32 32" fill="none" xmlns="http://www.w3.org/2000/svg">
<path d="M20.598 29.98H11.408C9.30798 29.98 7.69798 28.09 8.04798 26.02L10.488 11.36H21.518L23.958 26.01C24.298 28.09 22.698 29.98 20.598 29.98Z" fill="#D6F9FF"/>
<path d="M20.598 29.98H11.408C9.30798 29.98 7.69798 28.09 8.04798 26.02L10.488 11.36H21.518L23.958 26.01C24.298 28.09 22.698 29.98 20.598 29.98Z" fill="url(#paint0_radial_18_28727)"/>
<path d="M20.598 29.98H11.408C9.30798 29.98 7.69798 28.09 8.04798 26.02L10.488 11.36H21.518L23.958 26.01C24.298 28.09 22.698 29.98 20.598 29.98Z" fill="url(#paint1_linear_18_28727)"/>
<path d="M20.598 29.98H11.408C9.30798 29.98 7.69798 28.09 8.04798 26.02L10.488 11.36H21.518L23.958 26.01C24.298 28.09 22.698 29.98 20.598 29.98Z" fill="url(#paint2_linear_18_28727)"/>
<path d="M21.5279 7.57996H10.4879V11.35H21.5279V7.57996Z" fill="url(#paint3_linear_18_28727)"/>
<path d="M21.5279 7.57996H10.4879V11.35H21.5279V7.57996Z" fill="url(#paint4_linear_18_28727)"/>
<path d="M21.5279 7.57996H10.4879V11.35H21.5279V7.57996Z" fill="url(#paint5_linear_18_28727)"/>
<path d="M19.508 2H12.488C10.178 2 8.45797 4.12 8.92797 6.38C9.07797 7.08 9.68797 7.58 10.408 7.58H21.598C22.308 7.58 22.928 7.08 23.078 6.38C23.548 4.12 21.818 2 19.508 2Z" fill="url(#paint6_linear_18_28727)"/>
<path d="M19.508 2H12.488C10.178 2 8.45797 4.12 8.92797 6.38C9.07797 7.08 9.68797 7.58 10.408 7.58H21.598C22.308 7.58 22.928 7.08 23.078 6.38C23.548 4.12 21.818 2 19.508 2Z" fill="url(#paint7_linear_18_28727)"/>
<path d="M19.508 2H12.488C10.178 2 8.45797 4.12 8.92797 6.38C9.07797 7.08 9.68797 7.58 10.408 7.58H21.598C22.308 7.58 22.928 7.08 23.078 6.38C23.548 4.12 21.818 2 19.508 2Z" fill="url(#paint8_radial_18_28727)"/>
<path d="M19.508 2H12.488C10.178 2 8.45797 4.12 8.92797 6.38C9.07797 7.08 9.68797 7.58 10.408 7.58H21.598C22.308 7.58 22.928 7.08 23.078 6.38C23.548 4.12 21.818 2 19.508 2Z" fill="url(#paint9_radial_18_28727)"/>
<path d="M19.508 2H12.488C10.178 2 8.45797 4.12 8.92797 6.38C9.07797 7.08 9.68797 7.58 10.408 7.58H21.598C22.308 7.58 22.928 7.08 23.078 6.38C23.548 4.12 21.818 2 19.508 2Z" fill="url(#paint10_radial_18_28727)"/>
<path d="M19.508 2H12.488C10.178 2 8.45797 4.12 8.92797 6.38C9.07797 7.08 9.68797 7.58 10.408 7.58H21.598C22.308 7.58 22.928 7.08 23.078 6.38C23.548 4.12 21.818 2 19.508 2Z" fill="url(#paint11_linear_18_28727)"/>
<path d="M19.7079 17.86H12.2979C11.9179 17.86 11.5879 18.14 11.5279 18.51L10.4379 25.05C10.1979 26.5 11.3179 27.82 12.7879 27.82H19.2179C20.6879 27.82 21.8079 26.5 21.5679 25.05L20.4779 18.51C20.4079 18.14 20.0879 17.86 19.7079 17.86Z" fill="url(#paint12_linear_18_28727)"/>
<path d="M19.7079 17.86H12.2979C11.9179 17.86 11.5879 18.14 11.5279 18.51L10.4379 25.05C10.1979 26.5 11.3179 27.82 12.7879 27.82H19.2179C20.6879 27.82 21.8079 26.5 21.5679 25.05L20.4779 18.51C20.4079 18.14 20.0879 17.86 19.7079 17.86Z" fill="url(#paint13_linear_18_28727)"/>
<path d="M12.9878 4.08C13.286 4.08 13.5278 3.83823 13.5278 3.54C13.5278 3.24177 13.286 3 12.9878 3C12.6895 3 12.4478 3.24177 12.4478 3.54C12.4478 3.83823 12.6895 4.08 12.9878 4.08Z" fill="url(#paint14_radial_18_28727)"/>
<path d="M16.5678 3.54C16.5678 3.83823 16.326 4.08 16.0278 4.08C15.7296 4.08 15.4878 3.83823 15.4878 3.54C15.4878 3.24177 15.7296 3 16.0278 3C16.326 3 16.5678 3.24177 16.5678 3.54Z" fill="url(#paint15_radial_18_28727)"/>
<path d="M19.0677 4.08C19.3659 4.08 19.6077 3.83823 19.6077 3.54C19.6077 3.24177 19.3659 3 19.0677 3C18.7695 3 18.5277 3.24177 18.5277 3.54C18.5277 3.83823 18.7695 4.08 19.0677 4.08Z" fill="url(#paint16_radial_18_28727)"/>
<path d="M15.1178 5.46004C15.1178 5.75828 14.8761 6.00004 14.5778 6.00004C14.2796 6.00004 14.0378 5.75828 14.0378 5.46004C14.0378 5.16181 14.2796 4.92004 14.5778 4.92004C14.8761 4.92004 15.1178 5.16181 15.1178 5.46004Z" fill="url(#paint17_radial_18_28727)"/>
<path d="M18.0079 5.46004C18.0079 5.75828 17.7661 6.00004 17.4679 6.00004C17.1696 6.00004 16.9279 5.75828 16.9279 5.46004C16.9279 5.16181 17.1696 4.92004 17.4679 4.92004C17.7661 4.92004 18.0079 5.16181 18.0079 5.46004Z" fill="url(#paint18_radial_18_28727)"/>
<path d="M17.7284 14.0642C17.6387 13.4983 18.0247 12.9669 18.5905 12.8772C19.1563 12.7875 19.6877 13.1735 19.7774 13.7393L21.8617 26.8861C21.9514 27.4519 21.5655 27.9833 20.9997 28.073C20.4338 28.1627 19.9024 27.7767 19.8127 27.2109L17.7284 14.0642Z" fill="url(#paint19_linear_18_28727)"/>
<defs>
<radialGradient id="paint0_radial_18_28727" cx="0" cy="0" r="1" gradientUnits="userSpaceOnUse" gradientTransform="translate(10.875 17.875) rotate(93.3665) scale(21.2867 6.12712)">
<stop stop-color="#B9E5FC"/>
<stop offset="1" stop-color="#CBEBFF" stop-opacity="0"/>
</radialGradient>
<linearGradient id="paint1_linear_18_28727" x1="23.4375" y1="18.8125" x2="20.9375" y2="19.25" gradientUnits="userSpaceOnUse">
<stop offset="0.267435" stop-color="#BCE2FD"/>
<stop offset="0.660097" stop-color="#C6E4FA" stop-opacity="0"/>
</linearGradient>
<linearGradient id="paint2_linear_18_28727" x1="8.9375" y1="18.1875" x2="11.3125" y2="18.625" gradientUnits="userSpaceOnUse">
<stop offset="0.329358" stop-color="#C1D9F0"/>
<stop offset="0.703119" stop-color="#C6E4FA" stop-opacity="0"/>
</linearGradient>
<linearGradient id="paint3_linear_18_28727" x1="10.4879" y1="11.35" x2="21.5279" y2="11.35" gradientUnits="userSpaceOnUse">
<stop stop-color="#949BA0"/>
<stop offset="0.0860131" stop-color="#A1ADB5"/>
<stop offset="0.374736" stop-color="#92A3AF"/>
<stop offset="0.703087" stop-color="#C0CDD6"/>
<stop offset="0.912553" stop-color="#C4D0D8"/>
<stop offset="1" stop-color="#B1B8BD"/>
</linearGradient>
<linearGradient id="paint4_linear_18_28727" x1="16.0079" y1="7.57996" x2="16.0079" y2="11.35" gradientUnits="userSpaceOnUse">
<stop stop-color="#879EAE"/>
<stop offset="0.127996" stop-color="#708C9E" stop-opacity="0"/>
</linearGradient>
<linearGradient id="paint5_linear_18_28727" x1="16.0079" y1="11.35" x2="16.0079" y2="9.46496" gradientUnits="userSpaceOnUse">
<stop stop-color="#879EAE"/>
<stop offset="0.127996" stop-color="#708C9E" stop-opacity="0"/>
</linearGradient>
<linearGradient id="paint6_linear_18_28727" x1="8.85022" y1="7.58" x2="23.1554" y2="7.58" gradientUnits="userSpaceOnUse">
<stop stop-color="#949496"/>
<stop offset="1" stop-color="#C0C2C5"/>
</linearGradient>
<linearGradient id="paint7_linear_18_28727" x1="14.0625" y1="7.9375" x2="14.0625" y2="5.84375" gradientUnits="userSpaceOnUse">
<stop stop-color="#8699A7"/>
<stop offset="1" stop-color="#839BAA" stop-opacity="0"/>
</linearGradient>
<radialGradient id="paint8_radial_18_28727" cx="0" cy="0" r="1" gradientUnits="userSpaceOnUse" gradientTransform="translate(16.0028 8.625) rotate(90) scale(3.0625 9.96954)">
<stop stop-color="#8CAFC5"/>
<stop offset="1" stop-color="#9ABDD2" stop-opacity="0"/>
</radialGradient>
<radialGradient id="paint9_radial_18_28727" cx="0" cy="0" r="1" gradientUnits="userSpaceOnUse" gradientTransform="translate(19.6875 4.4375) rotate(90) scale(2.125 5.44775)">
<stop stop-color="#D9DEE3"/>
<stop offset="1" stop-color="#DBE0E6" stop-opacity="0"/>
</radialGradient>
<radialGradient id="paint10_radial_18_28727" cx="0" cy="0" r="1" gradientUnits="userSpaceOnUse" gradientTransform="translate(10.6875 4.79) rotate(116.933) scale(4.96753 4.335)">
<stop offset="0.180585" stop-color="#B8C0C7"/>
<stop offset="1" stop-color="#ACB2B7" stop-opacity="0"/>
</radialGradient>
<linearGradient id="paint11_linear_18_28727" x1="15.5625" y1="8.125" x2="15.5625" y2="6.9375" gradientUnits="userSpaceOnUse">
<stop offset="0.342105" stop-color="#9CC0D6"/>
<stop offset="1" stop-color="#9CC0D6" stop-opacity="0"/>
</linearGradient>
<linearGradient id="paint12_linear_18_28727" x1="10.4054" y1="22.2225" x2="21.25" y2="22.2225" gradientUnits="userSpaceOnUse">
<stop stop-color="#CBD0D5"/>
<stop offset="0.308412" stop-color="#C3CAD1"/>
<stop offset="0.729128" stop-color="#DEE5EB"/>
<stop offset="1" stop-color="#EAEFF5"/>
</linearGradient>
<linearGradient id="paint13_linear_18_28727" x1="15.25" y1="28.1875" x2="15.25" y2="25.3125" gradientUnits="userSpaceOnUse">
<stop offset="0.163044" stop-color="#C0DFF3"/>
<stop offset="1" stop-color="#BEDFF5" stop-opacity="0"/>
</linearGradient>
<radialGradient id="paint14_radial_18_28727" cx="0" cy="0" r="1" gradientUnits="userSpaceOnUse" gradientTransform="translate(12.4478 4.08) rotate(-26.565) scale(1.20748)">
<stop offset="0.311386" stop-color="#95989C"/>
<stop offset="1" stop-color="#616A71"/>
</radialGradient>
<radialGradient id="paint15_radial_18_28727" cx="0" cy="0" r="1" gradientUnits="userSpaceOnUse" gradientTransform="translate(15.4878 4.08) rotate(-26.5651) scale(1.20748)">
<stop offset="0.311386" stop-color="#95989C"/>
<stop offset="1" stop-color="#616A71"/>
</radialGradient>
<radialGradient id="paint16_radial_18_28727" cx="0" cy="0" r="1" gradientUnits="userSpaceOnUse" gradientTransform="translate(18.5277 4.08) rotate(-26.5651) scale(1.20748)">
<stop offset="0.311386" stop-color="#95989C"/>
<stop offset="1" stop-color="#616A71"/>
</radialGradient>
<radialGradient id="paint17_radial_18_28727" cx="0" cy="0" r="1" gradientUnits="userSpaceOnUse" gradientTransform="translate(14.0378 6.00004) rotate(-26.5651) scale(1.20748)">
<stop offset="0.311386" stop-color="#95989C"/>
<stop offset="1" stop-color="#616A71"/>
</radialGradient>
<radialGradient id="paint18_radial_18_28727" cx="0" cy="0" r="1" gradientUnits="userSpaceOnUse" gradientTransform="translate(16.9279 6.00004) rotate(-26.5651) scale(1.20748)">
<stop offset="0.311386" stop-color="#95989C"/>
<stop offset="1" stop-color="#616A71"/>
</radialGradient>
<linearGradient id="paint19_linear_18_28727" x1="18.625" y1="13.25" x2="20.8125" y2="27.375" gradientUnits="userSpaceOnUse">
<stop offset="0.428328" stop-color="white"/>
<stop offset="0.871456" stop-color="white" stop-opacity="0"/>
</linearGradient>
</defs>
</svg>

<svg width="32" height="32" fill="none" xmlns="http://www.w3.org/2000/svg"><path d="M20.598 29.98h-9.19c-2.1 0-3.71-1.89-3.36-3.96l2.44-14.66h11.03l2.44 14.65c.34 2.08-1.26 3.97-3.36 3.97Z" fill="#D6F9FF"/><path d="M20.598 29.98h-9.19c-2.1 0-3.71-1.89-3.36-3.96l2.44-14.66h11.03l2.44 14.65c.34 2.08-1.26 3.97-3.36 3.97Z" fill="url(#a)"/><path d="M20.598 29.98h-9.19c-2.1 0-3.71-1.89-3.36-3.96l2.44-14.66h11.03l2.44 14.65c.34 2.08-1.26 3.97-3.36 3.97Z" fill="url(#b)"/><path d="M20.598 29.98h-9.19c-2.1 0-3.71-1.89-3.36-3.96l2.44-14.66h11.03l2.44 14.65c.34 2.08-1.26 3.97-3.36 3.97Z" fill="url(#c)"/><path d="M21.528 7.58h-11.04v3.77h11.04V7.58Z" fill="url(#d)"/><path d="M21.528 7.58h-11.04v3.77h11.04V7.58Z" fill="url(#e)"/><path d="M21.528 7.58h-11.04v3.77h11.04V7.58Z" fill="url(#f)"/><path d="M19.508 2h-7.02c-2.31 0-4.03 2.12-3.56 4.38.15.7.76 1.2 1.48 1.2h11.19c.71 0 1.33-.5 1.48-1.2.47-2.26-1.26-4.38-3.57-4.38Z" fill="url(#g)"/><path d="M19.508 2h-7.02c-2.31 0-4.03 2.12-3.56 4.38.15.7.76 1.2 1.48 1.2h11.19c.71 0 1.33-.5 1.48-1.2.47-2.26-1.26-4.38-3.57-4.38Z" fill="url(#h)"/><path d="M19.508 2h-7.02c-2.31 0-4.03 2.12-3.56 4.38.15.7.76 1.2 1.48 1.2h11.19c.71 0 1.33-.5 1.48-1.2.47-2.26-1.26-4.38-3.57-4.38Z" fill="url(#i)"/><path d="M19.508 2h-7.02c-2.31 0-4.03 2.12-3.56 4.38.15.7.76 1.2 1.48 1.2h11.19c.71 0 1.33-.5 1.48-1.2.47-2.26-1.26-4.38-3.57-4.38Z" fill="url(#j)"/><path d="M19.508 2h-7.02c-2.31 0-4.03 2.12-3.56 4.38.15.7.76 1.2 1.48 1.2h11.19c.71 0 1.33-.5 1.48-1.2.47-2.26-1.26-4.38-3.57-4.38Z" fill="url(#k)"/><path d="M19.508 2h-7.02c-2.31 0-4.03 2.12-3.56 4.38.15.7.76 1.2 1.48 1.2h11.19c.71 0 1.33-.5 1.48-1.2.47-2.26-1.26-4.38-3.57-4.38Z" fill="url(#l)"/><path d="M19.708 17.86h-7.41c-.38 0-.71.28-.77.65l-1.09 6.54c-.24 1.45.88 2.77 2.35 2.77h6.43c1.47 0 2.59-1.32 2.35-2.77l-1.09-6.54a.792.792 0 0 0-.77-.65Z" fill="url(#m)"/><path d="M19.708 17.86h-7.41c-.38 0-.71.28-.77.65l-1.09 6.54c-.24 1.45.88 2.77 2.35 2.77h6.43c1.47 0 2.59-1.32 2.35-2.77l-1.09-6.54a.792.792 0 0 0-.77-.65Z" fill="url(#n)"/><path d="M12.988 4.08a.54.54 0 1 0 0-1.08.54.54 0 0 0 0 1.08Z" fill="url(#o)"/><path d="M16.568 3.54a.54.54 0 1 1-1.08 0 .54.54 0 0 1 1.08 0Z" fill="url(#p)"/><path d="M19.068 4.08a.54.54 0 1 0 0-1.08.54.54 0 0 0 0 1.08Z" fill="url(#q)"/><path d="M15.118 5.46a.54.54 0 1 1-1.08 0 .54.54 0 0 1 1.08 0Z" fill="url(#r)"/><path d="M18.008 5.46a.54.54 0 1 1-1.08 0 .54.54 0 0 1 1.08 0Z" fill="url(#s)"/><path d="M17.728 14.064a1.037 1.037 0 0 1 2.05-.325l2.084 13.147a1.037 1.037 0 1 1-2.05.325l-2.084-13.147Z" fill="url(#t)"/><defs><linearGradient id="b" x1="23.438" y1="18.813" x2="20.938" y2="19.25" gradientUnits="userSpaceOnUse"><stop offset=".267" stop-color="#BCE2FD"/><stop offset=".66" stop-color="#C6E4FA" stop-opacity="0"/></linearGradient><linearGradient id="c" x1="8.938" y1="18.188" x2="11.313" y2="18.625" gradientUnits="userSpaceOnUse"><stop offset=".329" stop-color="#C1D9F0"/><stop offset=".703" stop-color="#C6E4FA" stop-opacity="0"/></linearGradient><linearGradient id="d" x1="10.488" y1="11.35" x2="21.528" y2="11.35" gradientUnits="userSpaceOnUse"><stop stop-color="#949BA0"/><stop offset=".086" stop-color="#A1ADB5"/><stop offset=".375" stop-color="#92A3AF"/><stop offset=".703" stop-color="#C0CDD6"/><stop offset=".913" stop-color="#C4D0D8"/><stop offset="1" stop-color="#B1B8BD"/></linearGradient><linearGradient id="e" x1="16.008" y1="7.58" x2="16.008" y2="11.35" gradientUnits="userSpaceOnUse"><stop stop-color="#879EAE"/><stop offset=".128" stop-color="#708C9E" stop-opacity="0"/></linearGradient><linearGradient id="f" x1="16.008" y1="11.35" x2="16.008" y2="9.465" gradientUnits="userSpaceOnUse"><stop stop-color="#879EAE"/><stop offset=".128" stop-color="#708C9E" stop-opacity="0"/></linearGradient><linearGradient id="g" x1="8.85" y1="7.58" x2="23.155" y2="7.58" gradientUnits="userSpaceOnUse"><stop stop-color="#949496"/><stop offset="1" stop-color="#C0C2C5"/></linearGradient><linearGradient id="h" x1="14.063" y1="7.938" x2="14.063" y2="5.844" gradientUnits="userSpaceOnUse"><stop stop-color="#8699A7"/><stop offset="1" stop-color="#839BAA" stop-opacity="0"/></linearGradient><linearGradient id="l" x1="15.563" y1="8.125" x2="15.563" y2="6.938" gradientUnits="userSpaceOnUse"><stop offset=".342" stop-color="#9CC0D6"/><stop offset="1" stop-color="#9CC0D6" stop-opacity="0"/></linearGradient><linearGradient id="m" x1="10.405" y1="22.223" x2="21.25" y2="22.223" gradientUnits="userSpaceOnUse"><stop stop-color="#CBD0D5"/><stop offset=".308" stop-color="#C3CAD1"/><stop offset=".729" stop-color="#DEE5EB"/><stop offset="1" stop-color="#EAEFF5"/></linearGradient><linearGradient id="n" x1="15.25" y1="28.188" x2="15.25" y2="25.313" gradientUnits="userSpaceOnUse"><stop offset=".163" stop-color="#C0DFF3"/><stop offset="1" stop-color="#BEDFF5" stop-opacity="0"/></linearGradient><linearGradient id="t" x1="18.625" y1="13.25" x2="20.813" y2="27.375" gradientUnits="userSpaceOnUse"><stop offset=".428" stop-color="#fff"/><stop offset=".871" stop-color="#fff" stop-opacity="0"/></linearGradient><radialGradient id="a" cx="0" cy="0" r="1" gradientUnits="userSpaceOnUse" gradientTransform="matrix(-1.25001 21.24997 -6.11655 -.3598 10.875 17.875)"><stop stop-color="#B9E5FC"/><stop offset="1" stop-color="#CBEBFF" stop-opacity="0"/></radialGradient><radialGradient id="i" cx="0" cy="0" r="1" gradientUnits="userSpaceOnUse" gradientTransform="matrix(0 3.0625 -9.96954 0 16.003 8.625)"><stop stop-color="#8CAFC5"/><stop offset="1" stop-color="#9ABDD2" stop-opacity="0"/></radialGradient><radialGradient id="j" cx="0" cy="0" r="1" gradientUnits="userSpaceOnUse" gradientTransform="matrix(0 2.125 -5.44775 0 19.688 4.438)"><stop stop-color="#D9DEE3"/><stop offset="1" stop-color="#DBE0E6" stop-opacity="0"/></radialGradient><radialGradient id="k" cx="0" cy="0" r="1" gradientUnits="userSpaceOnUse" gradientTransform="rotate(116.933 3.874 5.674) scale(4.96753 4.335)"><stop offset=".181" stop-color="#B8C0C7"/><stop offset="1" stop-color="#ACB2B7" stop-opacity="0"/></radialGradient><radialGradient id="o" cx="0" cy="0" r="1" gradientUnits="userSpaceOnUse" gradientTransform="matrix(1.08 -.54 .54 1.08 12.448 4.08)"><stop offset=".311" stop-color="#95989C"/><stop offset="1" stop-color="#616A71"/></radialGradient><radialGradient id="p" cx="0" cy="0" r="1" gradientUnits="userSpaceOnUse" gradientTransform="matrix(1.08 -.54 .54 1.08 15.488 4.08)"><stop offset=".311" stop-color="#95989C"/><stop offset="1" stop-color="#616A71"/></radialGradient><radialGradient id="q" cx="0" cy="0" r="1" gradientUnits="userSpaceOnUse" gradientTransform="matrix(1.08 -.54 .54 1.08 18.528 4.08)"><stop offset=".311" stop-color="#95989C"/><stop offset="1" stop-color="#616A71"/></radialGradient><radialGradient id="r" cx="0" cy="0" r="1" gradientUnits="userSpaceOnUse" gradientTransform="matrix(1.08 -.54 .54 1.08 14.038 6)"><stop offset=".311" stop-color="#95989C"/><stop offset="1" stop-color="#616A71"/></radialGradient><radialGradient id="s" cx="0" cy="0" r="1" gradientUnits="userSpaceOnUse" gradientTransform="matrix(1.08 -.54 .54 1.08 16.928 6)"><stop offset=".311" stop-color="#95989C"/><stop offset="1" stop-color="#616A71"/></radialGradient></defs></svg>
